X:1
T:Mettiamo questo spettaculo - Gibb
T:James Gibb editions
T:#
%%score [ 1 2 3 4 ]
L:1/8
Q:1/4=108
M:4/4
K:C
V:1 treble nm="Soprano" snm="S"
V:2 treble nm="Alto" snm="A"
V:3 treble-8 nm="Tenor" snm="T"
V:4 bass nm="Bass" snm="B"
V:1
"^Mettiamo questo spettaculo""^James Gibb\n(1944- )""^#" z8 | z8 | z8 | z8 | z8 | z8 | %6
w: ||||||
!p! z2 A2 A2 A2 |"^cresc." B4 ^G4- |!mf! G2 E2 E2 E2 | c4 B2 B2 |!f! (ABcd e2) d2 | c2 A6 | %12
w: Met- tiam', met-|tia- mo|* ques- to spet-|ta- cu- lo|sul\- * * * * la|stra- da.|
!mp! z2 c2 c2 B2 | d2 c2 z4 | z2 c2 e2 d2 | d2 c2 z4 |!mf! z2 c2 f4- | f2 (ed) e4 | %18
w: Met- tia- mo|ques- to|Met- tia- mo|ques- to|spet- ta\-|* cu\- * lo|
 (fe) (dc) B2 (AB) | c2 (Bc) d2 G2 | z8 | z4!p!"^cresc." B4 | G4 c4 | A4 d4 | B4 c2 c2 |!f! d8 | %26
w: sul\- * la * stra- da, *|sul- la * stra- da.||Op-|pu- re|sa- rò|tan- to ma\-|la-|
 e6 z2 |:[Q:1/4=120]!mf![Q:1/4=120][Q:1/4=120][Q:1/4=120][Q:1/4=120] (de)dc (Bc) (BA) | G2 G2 z4 | %29
w: to|quan\- * to un pap\- * pa\- *|gal- lo,|
 (cd)cB (AB) (AG) | F2 F2 z4 | z4 (cd)cB | (AB) (AG) F2 F2 | F4 E4 | D8 | E2 E2 E2 E2 | %36
w: quan\- * to un pap\- * pa\- *|gal- lo,|quan\- * to un|pap\- * pa\- * gal- lo,|pap- pa-|gal-|lo, in- ve- ce|
 FE (FG) (AG)AB | c2 c2 z4 | G^F (GA) (BA)Bc | d2 d2 cB (cd) |"^cresc." (ef)ed c2 c2 | %41
w: di͜~es- se- re * sop\- * ra la|lu- na,|di͜~es- se- re * sop\- * ra la|lu- na, di͜~es- se- re *|sop\- * ra la lu- na,|
 B2 (c4 B2) |1!f! c8 :|2!ff![Q:1/4=119] (c2[Q:1/4=116] f4)[Q:1/4=114] e2 |[Q:1/4=110] d8 | %45
w: la lu\- *|na.|na, * la|lu-|
[Q:1/4=108] c8 |] %46
w: na.|
V:2
 z8 |!p! z2 E2 E2 E2 | A4 ^G4- | G2 A2 B2 E2 | c6 (BA) | ^G2 A4 G2 | A2 A4 z2 | z8 | %8
w: |Met- tiam', met-|tia- mo|* ques- to spet-|ta- cu\- *|lo sul- la|stra- da.||
!mf! z2 C2 B,2 D2 | E4 D4 |!f! A4 ^G4 | A2 E6 |!mp! z2 A2 A2 ^G2 | B2 A2 z4 | z2 A2 ^G2 B2 | %15
w: Met- tia- mo|sul- la,|sul- la|stra- da.|Met- tia- mo|ques- to|Met- tia- mo|
 B2 A2 z4 | z4!mf! z2 A2 | d6 (cB) | c4 G2 F2 | F2 (FE) D2 D2 | z4!p!"^cresc." ^F4 | G4 D4 | %22
w: ques- to|spet-|ta- cu\- *|lo sul- la,|sul- la * stra- da.|Op-|pu- re|
 E4 G4 | F8 | F4 E4 |!f! (F4 G4) | G6 z2 |: z8 | z4!mf! (GA)GF | (EF) (ED) C2 C2 | z4 (Bc)BA | %31
w: sa- rò|tan-|to ma-|la\- *|to||quan\- * to un|pap\- * pa\- * gal- lo,|quan\- * to un|
 (GA) (GF) E2 E2 | (FG)FE (DE) (DC) | B,2 B,2 G,2 C2 | (C6 B,2) | C6 C2 | C2 C2 CB, (CD) | %37
w: pap\- * pa\- * gal- lo,|quan\- * to un pap\- * pa\- *|gal- lo, pap- pa-|gal\- *|lo, in-|ve- ce di͜~es- se- re *|
 (ED)EF G2 G2 | z4 G^F (GA) | (Bc)BA G2 G2 |"^cresc." cd (cB) (AG)FE | D2 E2 (D2 EF) |1!f! E8 :|2 %43
w: sop\- * ra la lu- na,|di͜~es- se- re *|sop\- * ra la lu- na,|di͜~es- se- re * sop\- * ra la|lu- na, lu\- * *|na.|
!ff! E2 A2 B2 c2 | (c4 B4) | G8 |] %46
w: na, la lu- na,|lu\- *|na.|
V:3
 z8 | z8 | z8 | z8 |!p! z2 A2 A2 A2 | (c4 B4) | A2 f2 f2 e2 |"^cresc." d3 (c/d/) e2 ed | %8
w: ||||Met- tiam', met-|tia\- *|mo ques- to spet-|ta- cu\- * lo sul- la|
!mf! c2 A2 z4 | z8 |!f! c2 e2 B4 | c8 | z8 |!mp! z2 c4 B2 | d2 c2 z4 | z2 (c2 e2) d2 | %16
w: stra- da,||sul- la stra-|da,||sul- la|stra- da,|sul\- * la|
 d2 c2!mf! z2 d2 | B2 G2 c4 | c2 A2 d2 d2 | A2 G2 B2 B2 |!p! d8 |"^cresc." B4 G4- | G4 e4 | c4 A4 | %24
w: stra- da, spet-|ta- cu- lo|sul- la stra- da,|sul- la stra- da.|Op-|pu- re|* sa-|rò tan-|
 B4 c4 |!f! (c4 B4) | c6 z2 |: z4!mf! (de)dc | (Bc) (BA) G2 G2 | z8 | (Ac)BA (GA) (GF) | %31
w: to ma-|la\- *|to|quan\- * to un|pap\- * pa\- * gal- lo,||quan\- * to un pap\- * pa\- *|
 E2 G2 (AB) (AG) | F2 A2 (Bc) (BA) | (GAGF) E4 | _A2 A2 G4 | G8 | z4 z2 A2 | G2 c2 (GFGA) | %38
w: gal- lo, pap\- * pa\- *|gal- lo, pap\- * pa\- *|gal\- * * * lo,|pap- pa- gal-|lo.|in-|ve- ce sop\- * * *|
 (BA) (Bc) d2 d2 | z4 z2 G2 |"^cresc." G2 G2 (FEAG) | B2 G2 (_A2 G2) |1!f! G8 :|2!ff! (E2 F2) G4 | %44
w: ra * la * lu- na,|in-|ve- ce sop\- * * *|ra la lu- *|na.|na, * la|
 (d6 fe) | e8 |] %46
w: lu\- * *|na.|
V:4
!p! A,,8 | C,4 A,,4- | A,,2 F,2 F,2 E,2 | D,3 (C,/D,/) E,2 E,D, | C,2 A,,4 z2 | z8 | z2 D,4 C,2 | %7
w: Met-|tia- mo|* ques- to spet-|ta- cu\- * lo sul- la|stra- da,||sul- la|
"^cresc." F,4 E,4- |!mf! E,2 A,2 ^G,2 B,2 | E,2 !>!A,4 ^G,2 |!f! (A,2 C,2) E,4 | A,2 A,,6 | z8 | %13
w: stra- da,|* ques- to spet-|ta- cu- lo|sul\- * la|stra- da,||
!mp! z2 A,4 ^G,2 | B,2 A,2 z4 | z2 (A,2 ^G,2) B,2 | E,2 A,2 z4 | z8 | A,2 F,2 G,2 D,2 | %19
w: sul- la|stra- da,|sul\- * la|stra- da,||sul- la stra- da,|
 F,2 (D,C,) G,2 G,,2 | z8 |"^cresc." z4!p! G,4 | E,4 C,4 | F,8 | D,4 C,4 |!f! G,8 | C,6 z2 |: z8 | %28
w: sul- la * stra- da.||Op-|pu- re|tan-|to ma-|la-|to||
!mf! (G,A,)G,F, (E,F,) (E,D,) | C,2 C,2 (F,G,)F,E, | (D,E,) (D,C,) B,,2 B,,2 | %31
w: quan\- * to un pap\- * pa\- *|gal- lo, quan\- * to un|pap\- * pa\- * gal- lo,|
 (E,F,)E,D, A,,2 A,,2 | D,4 G,,4 | G,,4 C,4 | (F,,4 G,,4) | C,8 | z2 A,2 F,2 F,2 | %37
w: quan\- * to un pap- pa-|gal- lo,|pap- pa-|gal\- *|lo.|in- ve- ce|
 C,B,, (C,D,) (E,D,)E,F, | G,2 G,6 | (G,A,G,F,) (E,F,) (E,D,) |"^cresc." C,8 | %41
w: di͜~es- se- re * sop\- * ra la|lu- na,|sop\- * * * ra * la *|lu-|
 G,,2 C,2 (F,,2 G,,2) |1!f! C,8 :|2!ff! A,,2 D,2 G,,2 C,2 | G,,8 | C,8 |] %46
w: na, la lu\- *|na.|na, la lun', la|lu-|na.|

